X: 69
T: Pollonesse #69
M: 3/4
L: 1/16
K: D
Q:120
d2dc defd A4|B2BA BcdB F4|G2GF E2g2 f2ed|d2cd edcB AGFE|
d2dc defd A4|B2BA BcdB F4|G2GF E2g2 f2ed|cdec d4 D4:|
fdAF D2d2 f2a2|ecAF A2c2 e2a2|d2dc B2c2 d2e2|fdcB A8|
BGDA, G,2G2 B2d2|AGFE D2F2 A2c2|d2dc B2g2 fafd|egec d4 D4:|
N: Jämför nr 3 & 11
N: Halvnoten i a:a rep. 4:e takten står noterad som en 1/4, dvs. det saknas ett slag i takten.
N: Orginalet saknar helt förtecken, dvs. nedteckand i C-dur vilket låter fel.

